img/icons/categories/04.svg

<svg width="64" height="60" viewBox="0 0 64 60" fill="none" xmlns="http://www.w3.org/2000/svg">
<path d="M62.716 60.0002H1.29679C0.981418 60.0002 0.82373 59.7637 0.82373 59.4483V54.8754C0.82373 54.6389 1.06026 54.4023 1.29679 54.4023H62.6371C62.9525 54.4023 63.1102 54.6389 63.1102 54.9542V59.5272C63.189 59.7637 62.9525 60.0002 62.716 60.0002ZM1.8487 58.9753H62.1641V55.4273H1.8487V58.9753Z" fill="black"/>
<path d="M58.6163 55.4267H5.39689C5.08152 55.4267 4.92383 55.1902 4.92383 54.8748V50.3019C4.92383 49.9865 5.16036 49.75 5.39689 49.75H58.6952C59.0106 49.75 59.1682 49.9865 59.1682 50.3019V54.8748C59.1682 55.1902 58.9317 55.4267 58.6163 55.4267ZM5.86995 54.4018H58.1433V50.8538H5.86995V54.4018Z" fill="black"/>
<path d="M61.8489 18.2127H2.16425C1.92772 18.2127 1.69119 18.055 1.69119 17.8185C1.61234 17.582 1.69119 17.3454 1.92772 17.2666L31.7306 0.078664C31.8883 -0.000179656 32.046 -0.000179656 32.2037 0.078664L62.0066 17.1877C62.2431 17.2666 62.3219 17.4243 62.3219 17.6608C62.4008 17.9762 62.1643 18.2127 61.8489 18.2127ZM4.0565 17.1877H59.9566L32.046 1.10363L4.0565 17.1877Z" fill="black"/>
<path d="M35.0417 50.8541H29.6015C29.2861 50.8541 29.1284 50.6176 29.1284 50.3022V21.4455C29.1284 21.1301 29.3649 20.8936 29.6015 20.8936H35.0417C35.3571 20.8936 35.5148 21.1301 35.5148 21.4455V50.3022C35.5148 50.6176 35.2782 50.8541 35.0417 50.8541ZM30.0745 49.8292H34.4898V21.9974H30.0745V49.8292Z" fill="black"/>
<path d="M14.9367 50.8541H9.4965C9.18113 50.8541 9.02344 50.6176 9.02344 50.3022V21.4455C9.02344 21.1301 9.25997 20.8936 9.4965 20.8936H14.9367C15.2521 20.8936 15.4098 21.1301 15.4098 21.4455V50.3022C15.4098 50.6176 15.1732 50.8541 14.9367 50.8541ZM9.96956 49.8292H14.3848V21.9974H9.96956V49.8292Z" fill="black"/>
<path d="M55.0681 50.8541H49.6278C49.3125 50.8541 49.1548 50.6176 49.1548 50.3022V21.4455C49.1548 21.1301 49.3913 20.8936 49.6278 20.8936H55.0681C55.3834 20.8936 55.5411 21.1301 55.5411 21.4455V50.3022C55.62 50.6176 55.3834 50.8541 55.0681 50.8541ZM50.1798 49.8292H54.595V21.9974H50.1798V49.8292Z" fill="black"/>
<path d="M16.8291 21.9977H7.60441C7.28904 21.9977 7.13135 21.7611 7.13135 21.4458V17.6613C7.13135 17.3459 7.36788 17.1094 7.60441 17.1094H16.908C17.2233 17.1094 17.381 17.3459 17.381 17.6613V21.4458C17.381 21.7611 17.1445 21.9977 16.8291 21.9977ZM8.07747 20.9727H16.3561V18.2132H8.07747V20.9727Z" fill="black"/>
<path d="M36.9343 21.9977H27.6308C27.3154 21.9977 27.1577 21.7611 27.1577 21.4458V17.6613C27.1577 17.3459 27.3942 17.1094 27.6308 17.1094H36.9343C37.2497 17.1094 37.4074 17.3459 37.4074 17.6613V21.4458C37.4074 21.7611 37.2497 21.9977 36.9343 21.9977ZM28.1827 20.9727H36.4613V18.2132H28.1827V20.9727Z" fill="black"/>
<path d="M57.0393 21.9977H47.7358C47.4204 21.9977 47.2627 21.7611 47.2627 21.4458V17.6613C47.2627 17.3459 47.4992 17.1094 47.7358 17.1094H57.0393C57.3547 17.1094 57.5124 17.3459 57.5124 17.6613V21.4458C57.5124 21.7611 57.2758 21.9977 57.0393 21.9977ZM48.2877 20.9727H56.5662V18.2132H48.2877V20.9727Z" fill="black"/>
<path d="M32.046 15.3741C29.9172 15.3741 28.1826 13.6396 28.1826 11.5108C28.1826 9.38202 29.9172 7.64746 32.046 7.64746C34.1747 7.64746 35.9093 9.38202 35.9093 11.5108C35.9093 13.5607 34.1747 15.3741 32.046 15.3741ZM32.046 8.59358C30.4691 8.59358 29.2076 9.85508 29.2076 11.432C29.2076 13.0088 30.4691 14.2703 32.046 14.2703C33.6228 14.2703 34.8843 13.0088 34.8843 11.432C34.8843 9.85508 33.6228 8.59358 32.046 8.59358Z" fill="#C47A2D"/>
</svg>

<svg width="64" height="60" fill="none" xmlns="http://www.w3.org/2000/svg"><path d="M62.716 60H1.296c-.315 0-.472-.236-.472-.552v-4.573c0-.236.236-.473.473-.473h61.34c.316 0 .473.237.473.552v4.573c.079.237-.157.473-.394.473zM1.849 58.975h60.315v-3.548H1.85v3.548z" fill="#000"/><path d="M58.616 55.427H5.396c-.314 0-.472-.237-.472-.552v-4.573c0-.316.236-.552.473-.552h53.298c.316 0 .473.236.473.552v4.573a.539.539 0 01-.552.552zM5.87 54.402h52.273v-3.548H5.87v3.548zm55.979-36.189H2.164c-.236 0-.473-.158-.473-.395-.079-.236 0-.473.237-.551L31.73.079a.503.503 0 01.473 0l29.803 17.109c.236.079.315.236.315.473.079.315-.158.552-.473.552zM4.057 17.188h55.9L32.046 1.104 4.056 17.188z" fill="#000"/><path d="M35.042 50.854h-5.44c-.316 0-.474-.236-.474-.552V21.445c0-.315.237-.551.474-.551h5.44c.315 0 .473.236.473.552v28.856c0 .316-.237.552-.473.552zm-4.968-1.025h4.416V21.997h-4.416V49.83zm-15.137 1.025h-5.44c-.316 0-.474-.236-.474-.552V21.445c0-.315.237-.551.473-.551h5.44c.316 0 .474.236.474.552v28.856c0 .316-.237.552-.473.552zM9.97 49.83h4.415V21.997H9.97V49.83zm45.098 1.024h-5.44c-.316 0-.473-.236-.473-.552V21.445c0-.315.236-.551.473-.551h5.44c.315 0 .473.236.473.552v28.856c.079.316-.158.552-.473.552zM50.18 49.83h4.415V21.997H50.18V49.83z" fill="#000"/><path d="M16.83 21.998H7.603c-.315 0-.473-.237-.473-.552V17.66c0-.315.237-.552.473-.552h9.304c.315 0 .473.237.473.552v3.785a.539.539 0 01-.552.552zm-8.753-1.025h8.28v-2.76h-8.28v2.76zm28.857 1.025h-9.303c-.316 0-.473-.237-.473-.552V17.66c0-.315.236-.552.473-.552h9.303c.316 0 .473.237.473.552v3.785c0 .315-.157.552-.473.552zm-8.751-1.025h8.278v-2.76h-8.278v2.76zm28.857 1.025h-9.304c-.316 0-.473-.237-.473-.552V17.66c0-.315.236-.552.473-.552h9.303c.316 0 .473.237.473.552v3.785c0 .315-.236.552-.473.552zm-8.752-1.025h8.278v-2.76h-8.278v2.76z" fill="#000"/><path d="M32.046 15.374a3.87 3.87 0 01-3.863-3.863 3.87 3.87 0 013.863-3.864 3.87 3.87 0 013.863 3.864c0 2.05-1.734 3.863-3.863 3.863zm0-6.78a2.827 2.827 0 00-2.838 2.838 2.827 2.827 0 002.838 2.838 2.827 2.827 0 002.838-2.838 2.827 2.827 0 00-2.838-2.838z" fill="#C47A2D"/></svg>
